assets/fc/fc-video-projector.svg

<svg xmlns="http://www.w3.org/2000/svg" width="100%" height="100%" viewBox="0 0 48 48"><g fill="#546E7A"><path d="M5 34h6v3H5zM37 34h6v3h-6z"/></g><path fill="#78909C" d="M44 35H4c-2.2 0-4-1.8-4-4V17c0-2.2 1.8-4 4-4h40c2.2 0 4 1.8 4 4v14c0 2.2-1.8 4-4 4z"/><g fill="#37474F"><path d="M5 19h2v2H5zM5 23h2v2H5zM5 27h2v2H5zM9 19h2v2H9zM9 23h2v2H9zM9 27h2v2H9zM13 19h2v2h-2zM13 23h2v2h-2zM13 27h2v2h-2zM17 19h2v2h-2zM17 23h2v2h-2zM17 27h2v2h-2zM21 19h2v2h-2zM21 23h2v2h-2zM21 27h2v2h-2z"/></g><circle cx="37" cy="24" r="8" fill="#37474F"/><circle cx="37" cy="24" r="6" fill="#a0f"/><path fill="#EA80FC" d="M40.7 21.7c-1-1.1-2.3-1.7-3.7-1.7s-2.8.6-3.7 1.7c-.4.4-.3 1 .1 1.4.4.4 1 .3 1.4-.1 1.2-1.3 3.3-1.3 4.5 0 .2.2.5.3.7.3.2 0 .5-.1.7-.3.4-.3.4-.9 0-1.3z"/></svg>

<svg xmlns="http://www.w3.org/2000/svg" width="100%" height="100%" viewBox="0 0 48 48"><g fill="#546E7A"><path d="M5 34H11V37H5zM37 34H43V37H37z"/></g><path fill="#78909C" d="M44,35H4c-2.2,0-4-1.8-4-4V17c0-2.2,1.8-4,4-4h40c2.2,0,4,1.8,4,4v14C48,33.2,46.2,35,44,35z"/><g fill="#37474F"><path d="M5 19H7V21H5zM5 23H7V25H5zM5 27H7V29H5zM9 19H11V21H9zM9 23H11V25H9zM9 27H11V29H9zM13 19H15V21H13zM13 23H15V25H13zM13 27H15V29H13zM17 19H19V21H17zM17 23H19V25H17zM17 27H19V29H17zM21 19H23V21H21zM21 23H23V25H21zM21 27H23V29H21z"/></g><circle cx="37" cy="24" r="8" fill="#37474F"/><circle cx="37" cy="24" r="6" fill="#a0f"/><path fill="#EA80FC" d="M40.7,21.7c-1-1.1-2.3-1.7-3.7-1.7s-2.8,0.6-3.7,1.7c-0.4,0.4-0.3,1,0.1,1.4c0.4,0.4,1,0.3,1.4-0.1 c1.2-1.3,3.3-1.3,4.5,0c0.2,0.2,0.5,0.3,0.7,0.3c0.2,0,0.5-0.1,0.7-0.3C41.1,22.7,41.1,22.1,40.7,21.7z"/></svg>
